src/16/panel/btsync-gui-1.svg

<svg xmlns="http://www.w3.org/2000/svg" width="16" height="16" version="1.1">
 <defs>
  <style id="current-color-scheme" type="text/css">
   .ColorScheme-Text { color:#dfdfdf; } .ColorScheme-Highlight { color:#4285f4; }
  </style>
 </defs>
 <path style="fill:currentColor" class="ColorScheme-Text" d="M 6.1882667,1.2385192 C 2.4542389,2.2390489 0.23798952,6.0777055 1.2385193,9.8117333 2.2390489,13.545761 6.0777055,15.762011 9.8117333,14.761481 13.545761,13.760951 15.762011,9.9222945 14.761481,6.1882667 13.760951,2.4542389 9.9222945,0.23798947 6.1882667,1.2385192 Z M 6.7059048,3.1703709 C 9.0424822,2.5442868 11.436454,3.6811137 12.474595,5.7657596 L 13.536736,5.4811598 12.381342,8.8965755 9.6730326,6.5164361 10.46162,6.3051346 C 9.7616171,5.2888758 8.4836034,4.7645903 7.2235429,5.1022225 6.5346703,5.2881064 5.9346032,5.7134301 5.531047,6.3018521 L 3.5336461,5.7674035 C 4.1712342,4.4880797 5.3258765,3.5428087 6.7059048,3.1703709 Z M 3.6186586,7.1034245 6.3269674,9.4835639 5.5383795,9.6948659 C 6.2383827,10.711124 7.5163966,11.23541 8.7764572,10.897777 9.4653292,10.711894 10.065397,10.28657 10.468954,9.6981481 l 1.9974,0.5344479 C 11.828766,11.51192 10.674116,12.457162 9.2940953,12.829629 6.9575177,13.455714 4.5635462,12.318886 3.5254052,10.234241 L 2.4632642,10.51884 3.6186586,7.1034245 Z"/>
</svg>

<svg xmlns="http://www.w3.org/2000/svg" width="16" height="16"><defs><style id="current-color-scheme" type="text/css">.ColorScheme-Text{color:#dfdfdf;}.ColorScheme-Highlight{color:#5294e2;}</style></defs><defs><style id="current-color-scheme" type="text/css"></style></defs><path d="M6.188 1.239a7 7 0 1 0 3.624 13.523A7 7 0 0 0 6.188 1.239zm.518 1.931a5.002 5.002 0 0 1 5.769 2.596l1.062-.285-1.156 3.416-2.708-2.38.789-.212a2.99 2.99 0 0 0-3.238-1.203 3 3 0 0 0-1.693 1.2l-1.997-.535A5 5 0 0 1 6.706 3.17zM3.619 7.103l2.708 2.38-.789.212a2.99 2.99 0 0 0 3.238 1.203 3 3 0 0 0 1.693-1.2l1.997.535a5 5 0 0 1-3.172 2.597 5.002 5.002 0 0 1-5.769-2.596l-1.062.285L3.62 7.103z" fill="currentColor" class="ColorScheme-Text"/></svg>
